storage/app/icons/phosphoricons/bold/mouse-bold.svg

<svg xmlns="http://www.w3.org/2000/svg" fill="currentColor" viewBox="0 0 256 256"><path d="M144 12h-32a68.07 68.07 0 0 0-68 68v96a68.07 68.07 0 0 0 68 68h32a68.07 68.07 0 0 0 68-68V80a68.07 68.07 0 0 0-68-68m44 68v20h-48V36h4a44.05 44.05 0 0 1 44 44m-76-44h4v64H68V80a44.05 44.05 0 0 1 44-44m32 184h-32a44.05 44.05 0 0 1-44-44v-52h120v52a44.05 44.05 0 0 1-44 44"/></svg>

<svg xmlns="http://www.w3.org/2000/svg" viewBox="0 0 256 256" fill="currentColor"><path d="M144,12H112A68.07,68.07,0,0,0,44,80v96a68.07,68.07,0,0,0,68,68h32a68.07,68.07,0,0,0,68-68V80A68.07,68.07,0,0,0,144,12Zm44,68v20H140V36h4A44.05,44.05,0,0,1,188,80ZM112,36h4v64H68V80A44.05,44.05,0,0,1,112,36Zm32,184H112a44.05,44.05,0,0,1-44-44V124H188v52A44.05,44.05,0,0,1,144,220Z"/></svg>
